static/icons/customisation.svg

<svg xmlns="http://www.w3.org/2000/svg" width="48" height="48" fill="none">
  <g stroke="#7EBBE5" stroke-linecap="round" stroke-linejoin="round" stroke-width="2.81" clip-path="url(#a)">
    <path d="M24.0001 42c-4.7739 0-9.3523-1.8964-12.728-5.2721C7.89648 33.3523 6.00006 28.7739 6.00006 24s1.89642-9.3523 5.27204-12.7279C14.6478 7.89642 19.2262 6 24.0001 6c9.94 0 18 7.164 18 16 0 2.12-.948 4.156-2.636 5.656-1.688 1.5-3.978 2.344-6.364 2.344h-5c-.8923-.0144-1.7638.27-2.4758.808s-1.2237 1.2986-1.4536 2.1608c-.23.8623-.165 1.7767.1847 2.5977.3496.8211.9637 1.5017 1.7447 1.9335.3993.3685.6731.8528.783 1.3849.1099.5322.0504 1.0853-.1703 1.5819-.2207.4965-.5914.9114-1.06 1.1864-.4686.275-1.0116.3963-1.5527.3468Z"/>
    <path d="M15.0001 20.9999c0 .5304.2107 1.0391.5857 1.4142.3751.3751.8838.5858 1.4143.5858.5304 0 1.0391-.2107 1.4142-.5858.375-.3751.5858-.8838.5858-1.4142 0-.5305-.2108-1.0392-.5858-1.4142-.3751-.3751-.8838-.5858-1.4142-.5858-.5305 0-1.0392.2107-1.4143.5858-.375.375-.5857.8837-.5857 1.4142Zm7.9999-6c0 .5304.2107 1.0391.5858 1.4142.375.3751.8837.5858 1.4142.5858.5304 0 1.0391-.2107 1.4142-.5858S27 15.5303 27 14.9999c0-.5305-.2107-1.0392-.5858-1.4142-.3751-.3751-.8838-.5858-1.4142-.5858-.5305 0-1.0392.2107-1.4142.5858-.3751.375-.5858.8837-.5858 1.4142Zm8.0002 6c0 .5304.2107 1.0391.5857 1.4142.3751.3751.8838.5858 1.4143.5858.5304 0 1.0391-.2107 1.4142-.5858.375-.3751.5858-.8838.5858-1.4142 0-.5305-.2108-1.0392-.5858-1.4142-.3751-.3751-.8838-.5858-1.4142-.5858-.5305 0-1.0392.2107-1.4143.5858-.375.375-.5857.8837-.5857 1.4142Z"/>
  </g>
  <defs>
    <clipPath id="a">
      <path fill="#fff" d="M0 0h48v48H0z"/>
    </clipPath>
  </defs>
</svg>

<svg width="48" height="48" viewBox="0 0 48 48" fill="none" xmlns="http://www.w3.org/2000/svg">
<g clip-path="url(#clip0_450_100)">
<path d="M24.0001 42C19.2262 42 14.6478 40.1036 11.2721 36.7279C7.89648 33.3523 6.00006 28.7739 6.00006 24C6.00006 19.2261 7.89648 14.6477 11.2721 11.2721C14.6478 7.89642 19.2262 6 24.0001 6C33.9401 6 42.0001 13.164 42.0001 22C42.0001 24.12 41.0521 26.156 39.3641 27.656C37.6761 29.156 35.3861 30 33.0001 30H28.0001C27.1078 29.9856 26.2363 30.27 25.5243 30.808C24.8123 31.346 24.3006 32.1066 24.0707 32.9688C23.8407 33.8311 23.9057 34.7455 24.2554 35.5665C24.605 36.3876 25.2191 37.0682 26.0001 37.5C26.3994 37.8685 26.6732 38.3528 26.7831 38.8849C26.893 39.4171 26.8335 39.9702 26.6128 40.4668C26.3921 40.9633 26.0214 41.3782 25.5528 41.6532C25.0842 41.9282 24.5412 42.0495 24.0001 42Z" stroke="#7EBBE5" stroke-width="2.81" stroke-linecap="round" stroke-linejoin="round"/>
<path d="M15.0001 20.9999C15.0001 21.5303 15.2108 22.039 15.5858 22.4141C15.9609 22.7892 16.4696 22.9999 17.0001 22.9999C17.5305 22.9999 18.0392 22.7892 18.4143 22.4141C18.7893 22.039 19.0001 21.5303 19.0001 20.9999C19.0001 20.4694 18.7893 19.9607 18.4143 19.5857C18.0392 19.2106 17.5305 18.9999 17.0001 18.9999C16.4696 18.9999 15.9609 19.2106 15.5858 19.5857C15.2108 19.9607 15.0001 20.4694 15.0001 20.9999Z" stroke="#7EBBE5" stroke-width="2.81" stroke-linecap="round" stroke-linejoin="round"/>
<path d="M23 14.9999C23 15.5303 23.2107 16.039 23.5858 16.4141C23.9608 16.7892 24.4695 16.9999 25 16.9999C25.5304 16.9999 26.0391 16.7892 26.4142 16.4141C26.7893 16.039 27 15.5303 27 14.9999C27 14.4694 26.7893 13.9607 26.4142 13.5857C26.0391 13.2106 25.5304 12.9999 25 12.9999C24.4695 12.9999 23.9608 13.2106 23.5858 13.5857C23.2107 13.9607 23 14.4694 23 14.9999Z" stroke="#7EBBE5" stroke-width="2.81" stroke-linecap="round" stroke-linejoin="round"/>
<path d="M31.0002 20.9999C31.0002 21.5303 31.2109 22.039 31.5859 22.4141C31.961 22.7892 32.4697 22.9999 33.0002 22.9999C33.5306 22.9999 34.0393 22.7892 34.4144 22.4141C34.7894 22.039 35.0002 21.5303 35.0002 20.9999C35.0002 20.4694 34.7894 19.9607 34.4144 19.5857C34.0393 19.2106 33.5306 18.9999 33.0002 18.9999C32.4697 18.9999 31.961 19.2106 31.5859 19.5857C31.2109 19.9607 31.0002 20.4694 31.0002 20.9999Z" stroke="#7EBBE5" stroke-width="2.81" stroke-linecap="round" stroke-linejoin="round"/>
</g>
<defs>
<clipPath id="clip0_450_100">
<rect width="48" height="48" fill="white"/>
</clipPath>
</defs>
</svg>
